X: 60
M:6/8
L:1/8
Q:160
K:F
|: F| FGF F2f| f2 d cAF|G2 A B2 G|AFD D2 F |FGF F2 f|f2 d cAF |G2 A B2 G|AF D D2:|

